docs/img/questions/stars-2-mob.svg

<svg width="344" height="588" fill="none" xmlns="http://www.w3.org/2000/svg"><path d="M395.527 322.574l-57.857 23.149a22.415 22.415 0 00-10.339 8.398l-27.789 41.774c-8.144 12.242-26.858 9.534-31.263-4.524l-14.035-44.791a22.577 22.577 0 00-8.995-12.017l-53.439-35.739c-12.207-8.164-9.595-26.806 4.375-31.235l57.848-18.34a22.417 22.417 0 0012.802-10.444l23.737-42.52c7.373-13.207 26.913-11.412 31.826 2.923l16.849 49.158a22.586 22.586 0 009.313 11.777l49.74 31.373c12.101 7.632 10.483 25.754-2.773 31.058z" stroke="#fff" stroke-opacity=".3" stroke-width="5"/><path d="M362.574 309.466l-42.297 16.923a12.457 12.457 0 00-5.744 4.666l-21.17 31.824c-3.49 5.246-11.51 4.086-13.398-1.94l-10.854-34.638a12.552 12.552 0 00-4.997-6.677l-39.278-26.268c-5.232-3.498-4.112-11.488 1.875-13.386l42.96-13.62a12.453 12.453 0 007.113-5.802l18.476-33.096c3.159-5.66 11.534-4.891 13.639 1.253l12.929 37.721a12.55 12.55 0 005.174 6.543l36.761 23.186c5.186 3.271 4.492 11.038-1.189 13.311z" stroke="#fff" stroke-opacity=".6" stroke-width="5"/><path d="M430.562 326.63l-83.068 33.236a22.422 22.422 0 00-10.339 8.398l-41.509 62.399c-8.144 12.242-26.858 9.534-31.263-4.524l-21.271-67.88a22.57 22.57 0 00-8.994-12.017l-77.123-51.578c-12.206-8.163-9.594-26.806 4.376-31.235l84.319-26.732a22.417 22.417 0 0012.802-10.444l36.198-64.84c7.372-13.207 26.912-11.412 31.826 2.923l25.343 73.943a22.58 22.58 0 009.313 11.776l72.164 45.517c12.101 7.633 10.482 25.754-2.774 31.058z" stroke="#fff" stroke-opacity=".2" stroke-width="5"/></svg>

<svg width="344" height="588" viewBox="0 0 344 588" fill="none" xmlns="http://www.w3.org/2000/svg">
<path d="M395.527 322.574L337.67 345.723C333.452 347.41 329.848 350.338 327.331 354.121L299.542 395.895C291.398 408.137 272.684 405.429 268.279 391.371L254.244 346.58C252.704 341.666 249.53 337.425 245.249 334.563L191.81 298.824C179.603 290.66 182.215 272.018 196.185 267.589L254.033 249.249C259.475 247.524 264.052 243.79 266.835 238.805L290.572 196.285C297.945 183.078 317.485 184.873 322.398 199.208L339.247 248.366C340.917 253.238 344.204 257.395 348.56 260.143L398.3 291.516C410.401 299.148 408.783 317.27 395.527 322.574Z" stroke="white" stroke-opacity="0.3" stroke-width="5"/>
<path d="M362.574 309.466L320.277 326.389C317.934 327.327 315.931 328.953 314.533 331.055L293.363 362.879C289.873 368.125 281.853 366.965 279.965 360.939L269.111 326.301C268.255 323.571 266.492 321.215 264.114 319.624L224.836 293.356C219.604 289.858 220.724 281.868 226.711 279.97L269.671 266.35C272.695 265.392 275.238 263.317 276.784 260.548L295.26 227.452C298.419 221.792 306.794 222.561 308.899 228.705L321.828 266.426C322.756 269.133 324.582 271.442 327.002 272.969L363.763 296.155C368.949 299.426 368.255 307.193 362.574 309.466Z" stroke="white" stroke-opacity="0.6" stroke-width="5"/>
<path d="M430.562 326.63L347.494 359.866C343.276 361.554 339.671 364.482 337.155 368.264L295.646 430.663C287.502 442.905 268.788 440.197 264.383 426.139L243.112 358.259C241.573 353.345 238.399 349.104 234.118 346.242L156.995 294.664C144.789 286.501 147.401 267.858 161.371 263.429L245.69 236.697C251.132 234.972 255.709 231.238 258.492 226.253L294.69 161.413C302.062 148.206 321.602 150.001 326.516 164.336L351.859 238.279C353.529 243.151 356.816 247.308 361.172 250.055L433.336 295.572C445.437 303.205 443.818 321.326 430.562 326.63Z" stroke="white" stroke-opacity="0.2" stroke-width="5"/>
</svg>
